packages/core/src/svgs/rsc.svg

<svg width="24" height="24" viewBox="0 0 24 24" fill="none" xmlns="http://www.w3.org/2000/svg">
<g clip-path="url(#clip0_31_17491)">
<path d="M0 0H24V24H0V0Z" fill="#F0F3FA"/>
<path fill-rule="evenodd" clip-rule="evenodd" d="M12.6598 4.07157C12.6598 4.42728 12.3598 4.71443 11.9998 4.71443C11.6355 4.71443 11.3398 4.42728 11.3398 4.07157C11.3398 3.71585 11.6398 3.42871 11.9998 3.42871C12.3641 3.42871 12.6598 3.71585 12.6598 4.07157ZM10.7141 6.42871C10.7141 6.65604 10.6238 6.87406 10.463 7.0348C10.3023 7.19555 10.0842 7.28585 9.85692 7.28585C9.62959 7.28585 9.41158 7.19555 9.25083 7.0348C9.09008 6.87406 8.99978 6.65604 8.99978 6.42871C8.99978 6.20138 9.09008 5.98337 9.25083 5.82262C9.41158 5.66187 9.62959 5.57157 9.85692 5.57157C10.0842 5.57157 10.3023 5.66187 10.463 5.82262C10.6238 5.98337 10.7141 6.20138 10.7141 6.42871ZM14.1426 7.28585C14.37 7.28585 14.588 7.19555 14.7487 7.0348C14.9095 6.87406 14.9998 6.65604 14.9998 6.42871C14.9998 6.20138 14.9095 5.98337 14.7487 5.82262C14.588 5.66187 14.37 5.57157 14.1426 5.57157C13.9153 5.57157 13.6973 5.66187 13.5365 5.82262C13.3758 5.98337 13.2855 6.20138 13.2855 6.42871C13.2855 6.65604 13.3758 6.87406 13.5365 7.0348C13.6973 7.19555 13.9153 7.28585 14.1426 7.28585ZM10.4912 9.00014C10.3626 9.00871 10.2341 9.013 10.1312 8.98728C9.87406 8.923 9.74549 8.85871 9.74549 8.54157C9.74549 8.27585 10.0626 8.13871 10.3455 8.143H13.6326C13.8855 8.143 14.2712 8.28014 14.2583 8.58871C14.2455 9.03014 13.6412 9.01728 13.3412 8.99585C13.3342 8.99526 13.3272 8.9961 13.3206 8.99831C13.314 9.00052 13.3079 9.00406 13.3026 9.00871C13.2975 9.01291 13.2934 9.01813 13.2904 9.02403C13.2875 9.02994 13.2858 9.0364 13.2855 9.043V11.8373C13.2855 11.8973 13.3026 11.953 13.3369 12.0087C14.5541 13.7959 15.7369 15.6087 16.9155 17.4216C17.0398 17.6059 17.1512 17.8244 17.1426 18.0473C17.1212 18.6944 16.5555 18.8573 15.9941 18.8573H7.99692C7.64121 18.8573 7.26835 18.8059 7.04549 18.5444C6.88264 18.3601 6.82692 18.1544 6.87406 17.9316C6.91264 17.7344 6.97692 17.563 7.07121 17.4173L8.42121 15.3859C9.17549 14.2544 9.92121 13.1273 10.6669 11.9916C10.6969 11.9444 10.7098 11.893 10.7098 11.8373V9.043C10.7109 9.037 10.7107 9.03084 10.7092 9.02493C10.7077 9.01902 10.705 9.01349 10.7012 9.00871C10.6966 9.00439 10.6913 9.00103 10.6854 8.99882C10.6795 8.99661 10.6732 8.9956 10.6669 8.99585H10.4912V9.00014ZM14.2583 15.0001H9.73692L9.72406 14.9959L9.71121 14.983C9.70895 14.9791 9.70776 14.9747 9.70776 14.9701C9.70776 14.9656 9.70895 14.9612 9.71121 14.9573L11.5712 12.1716V9.00014H12.4283L12.4326 12.1716L14.2841 14.9573C14.2873 14.9603 14.2896 14.964 14.291 14.9682C14.2923 14.9724 14.2926 14.9768 14.2917 14.9811C14.2908 14.9854 14.2889 14.9894 14.2861 14.9927C14.2832 14.9961 14.2796 14.9986 14.2755 15.0001H14.2626H14.2583Z" fill="#4F53F6"/>
</g>
<defs>
<clipPath id="clip0_31_17491">
<rect width="24" height="24" fill="white"/>
</clipPath>
</defs>
</svg>

<svg xmlns="http://www.w3.org/2000/svg" width="24" height="24" fill="none" viewBox="0 0 24 24"><g clip-path="url(#a)"><path fill="#F0F3FA" d="M0 0h24v24H0z"/><path fill="#4F53F6" fill-rule="evenodd" d="M12.66 4.072c0 .355-.3.642-.66.642a.65.65 0 0 1-.66-.642c0-.356.3-.643.66-.643.364 0 .66.287.66.643m-1.946 2.357a.857.857 0 1 1-1.714 0 .857.857 0 0 1 1.714 0m3.429.857a.857.857 0 1 0 0-1.714.857.857 0 0 0 0 1.714M10.49 9a1.2 1.2 0 0 1-.36-.013c-.257-.064-.386-.128-.386-.445 0-.266.318-.403.6-.399h3.288c.253 0 .638.137.625.446-.012.441-.617.428-.917.407a.05.05 0 0 0-.038.013.05.05 0 0 0-.018.034v2.794q0 .089.052.172c1.217 1.787 2.4 3.6 3.579 5.413.124.184.235.402.227.625-.022.647-.588.81-1.149.81H7.997c-.356 0-.729-.051-.952-.313a.67.67 0 0 1-.17-.612q.056-.297.196-.515l1.35-2.031c.754-1.132 1.5-2.259 2.246-3.394a.3.3 0 0 0 .043-.155V9.043a.04.04 0 0 0-.009-.034.05.05 0 0 0-.034-.013h-.176zm3.767 6H9.737l-.013-.004-.013-.013a.03.03 0 0 1 0-.026l1.86-2.785V9h.857l.005 3.172 1.851 2.785a.03.03 0 0 1 .008.024l-.006.012-.01.007h-.018" clip-rule="evenodd"/></g><defs><clipPath id="a"><path fill="#fff" d="M0 0h24v24H0z"/></clipPath></defs></svg>
